X:142
T:Karen's Delight
R:jig
M:6/8
L:1/8
K:Emin
|:ege edB|ABA E2F|GBG E2F|GAB dBd|
ege edB|ABA E2F|GAB ABA|1 GEE E2d:|2 GEE Eef|]
|:gef gef|gab edB|gbe dBA|Bee e2f|
gbe deB|ABA AGE|GAB ABA|1 GEE Eef:|2 GEE E3|]

